packages/foundations/assets/icons/functional/images/medical/medical_cross_16_filled.svg

<svg width="16" height="16" viewBox="0 0 16 16" fill="none" xmlns="http://www.w3.org/2000/svg">
<g clip-path="url(#clip0_2213_5583)">
<path fill-rule="evenodd" clip-rule="evenodd" d="M5.60002 12.8V10.4H3.20002C2.7582 10.4 2.40002 10.0418 2.40002 9.59999V6.39999C2.40002 5.95817 2.7582 5.59999 3.20002 5.59999H5.60002V3.19999C5.60002 2.75817 5.9582 2.39999 6.40002 2.39999H9.60002C10.0419 2.39999 10.4 2.75817 10.4 3.19999V5.59999H12.8C13.2419 5.59999 13.6 5.95817 13.6 6.39999V9.59999C13.6 10.0418 13.2419 10.4 12.8 10.4H10.4V12.8C10.4 13.2418 10.0419 13.6 9.60002 13.6H6.40002C5.9582 13.6 5.60002 13.2418 5.60002 12.8Z" fill="#1A1C1F"/>
</g>
<defs>
<clipPath id="clip0_2213_5583">
<rect width="16" height="16" fill="white"/>
</clipPath>
</defs>
</svg>

<svg xmlns="http://www.w3.org/2000/svg" width="16" height="16" fill="none"><g clip-path="url(#a)"><path fill="#1A1C1F" fill-rule="evenodd" d="M5.6 12.8v-2.4H3.2a.8.8 0 0 1-.8-.8V6.4a.8.8 0 0 1 .8-.8h2.4V3.2a.8.8 0 0 1 .8-.8h3.2a.8.8 0 0 1 .8.8v2.4h2.4a.8.8 0 0 1 .8.8v3.2a.8.8 0 0 1-.8.8h-2.4v2.4a.8.8 0 0 1-.8.8H6.4a.8.8 0 0 1-.8-.8" clip-rule="evenodd"/></g><defs><clipPath id="a"><path fill="#fff" d="M0 0h16v16H0z"/></clipPath></defs></svg>
